img/next-small.svg

<svg width="12" height="13" viewBox="0 0 12 13" fill="none" xmlns="http://www.w3.org/2000/svg">
<path fill-rule="evenodd" clip-rule="evenodd" d="M4.05019 3.35842C4.2369 3.16424 4.53961 3.16424 4.72632 3.35842L7.59491 6.34175C7.78162 6.53593 7.78162 6.85075 7.59491 7.04493L4.72632 10.0283C4.53961 10.2224 4.2369 10.2224 4.05019 10.0283C3.86348 9.83408 3.86348 9.51926 4.05019 9.32508L6.58071 6.69334L4.05019 4.0616C3.86348 3.86742 3.86348 3.55259 4.05019 3.35842Z" fill="white" fill-opacity="0.8"/>
</svg>

<svg width="12" height="13" fill="none" xmlns="http://www.w3.org/2000/svg"><path fill-rule="evenodd" clip-rule="evenodd" d="M4.05 3.358a.465.465 0 0 1 .676 0l2.869 2.984a.511.511 0 0 1 0 .703l-2.869 2.983a.465.465 0 0 1-.676 0 .511.511 0 0 1 0-.703l2.53-2.632-2.53-2.631a.511.511 0 0 1 0-.704Z" fill="#fff" fill-opacity=".8"/></svg>
